X: 27970
T: Mouse In The Mug, The
R: jig
M: 6/8
K: Gmajor
|:G3 EGD|G3 Bdg|e3 dBG|A3 BGE|
G3 EGD|G3 Bdg|e3 dBG|1 AGF GBA:|2 AGF GBd||
|:gab agf|e/f/ge edB|deg edB|BAG ABd|
gab agf|e/f/ge edB|deg edB|AGF G3:|

